X: 161
T:Irish Washer Woman. JC.160
M:6/8
L:1/8
Q:180
S:John Clare,Poet,Helpstone (1793-1864)
R:Jig
O:England
A:Northamptonshire
N:MR 1st 2 notes & the notes after the 1st double bar lines are given as
Z:vmp.P. Headford
K:G
d/c/|BGG DGG|BGB dcB|cAA DAA|cAc edc|!
BGG DGG|BGB dcB|d/c/Bc Adc|BGG G2:|!
|:g/a/|agg dgg|bgb bag|afd Ada|fdf agf|!
(egg) (dgg)|Agg Bgg|d/c/Bc ABc|BGG G2|]
